picto/tourist-information.svg

<svg class="color-immutable" width="24" height="24" viewBox="0 0 24 24" fill="none" xmlns="http://www.w3.org/2000/svg"><path d="M0 22.5V1.5C0 0.675 0.675 0 1.5 0H22.5C23.325 0 24 0.675 24 1.5V22.5C24 23.325 23.325 24 22.5 24H1.5C0.675 24 0 23.325 0 22.5Z" fill="#2D327D"/><path d="M9.98303 9.33501C9.98303 8.35101 10.781 7.55301 11.765 7.55301C12.749 7.55301 13.547 8.35101 13.547 9.33501C13.547 10.319 12.749 11.117 11.765 11.117C10.781 11.116 9.98303 10.319 9.98303 9.33501Z" fill="white"/><path d="M8.99801 21.1C8.94101 21.1 8.65601 21.043 8.65601 20.747C8.65601 20.493 8.87001 20.394 8.99801 20.394L10.13 20.393V12.704L8.99801 12.706C8.94101 12.706 8.65601 12.649 8.65601 12.353C8.65601 12.099 8.87001 12 8.99801 12H13.34V20.394L14.465 20.395C14.593 20.395 14.807 20.494 14.807 20.748C14.807 21.044 14.521 21.101 14.465 21.101H8.99801V21.1Z" fill="white"/><path d="M4.96399 3V3.415H4.28099V5.248H3.78999V3.415H3.10999V3H4.96399Z" fill="white"/><path d="M5.73299 3.52301C5.97699 3.52301 6.17599 3.60401 6.33099 3.76601C6.48399 3.92601 6.55999 4.13901 6.55999 4.40601C6.55999 4.68201 6.47799 4.90201 6.31499 5.06601C6.16299 5.21801 5.96399 5.29501 5.71899 5.29501C5.45799 5.29501 5.24899 5.21001 5.09499 5.04001C4.94699 4.87701 4.87299 4.66701 4.87299 4.40901C4.87299 4.15501 4.94499 3.94801 5.08799 3.78901C5.24699 3.61201 5.46199 3.52301 5.73299 3.52301ZM5.70999 3.87101C5.59199 3.87101 5.49799 3.91901 5.42899 4.01401C5.35799 4.11001 5.32199 4.24201 5.32199 4.40901C5.32199 4.58201 5.35699 4.71501 5.42699 4.80701C5.49899 4.90001 5.59699 4.94701 5.72099 4.94701C5.83699 4.94701 5.92899 4.90401 5.99599 4.81901C6.07299 4.72501 6.11099 4.58801 6.11099 4.40801C6.11099 4.24001 6.07699 4.10901 6.00899 4.01601C5.93899 3.91901 5.83899 3.87101 5.70999 3.87101Z" fill="white"/><path d="M8.377 3.569V5.249H7.952V5.004C7.824 5.198 7.645 5.295 7.414 5.295C7.213 5.295 7.061 5.228 6.959 5.094C6.92 5.041 6.892 4.98 6.875 4.909C6.858 4.838 6.849 4.746 6.849 4.632V3.569H7.295V4.493C7.295 4.589 7.298 4.658 7.303 4.698C7.31 4.738 7.321 4.772 7.339 4.8C7.386 4.874 7.466 4.912 7.58 4.912C7.72 4.912 7.823 4.85 7.886 4.726C7.917 4.665 7.932 4.556 7.932 4.398V3.569H8.377Z" fill="white"/><path d="M9.76599 3.54099V3.97299C9.69399 3.95999 9.63599 3.95299 9.59199 3.95299C9.42599 3.95299 9.30399 4.02299 9.22599 4.16199C9.18199 4.24099 9.15999 4.37099 9.15999 4.55299V5.24799H8.71399V3.56799H9.13899V3.87399C9.25999 3.64599 9.43599 3.53299 9.66699 3.53299C9.69399 3.53399 9.72799 3.53599 9.76599 3.54099Z" fill="white"/><path d="M10.422 3V3.401H9.97601V3H10.422ZM10.422 3.572V5.249H9.97601V3.572H10.422Z" fill="white"/><path d="M12.147 4.05999H11.729C11.721 4.00299 11.705 3.95899 11.681 3.92899C11.634 3.86999 11.549 3.83999 11.424 3.83999C11.345 3.83999 11.284 3.85399 11.241 3.88299C11.198 3.91199 11.176 3.95199 11.176 4.00499C11.176 4.05999 11.2 4.10099 11.248 4.12699C11.296 4.15299 11.405 4.18299 11.575 4.21799C11.791 4.26199 11.947 4.31699 12.043 4.38299C12.156 4.45999 12.212 4.57699 12.212 4.73399C12.212 4.91299 12.142 5.05199 12.003 5.15099C11.866 5.24799 11.684 5.29699 11.457 5.29699C11.176 5.29699 10.97 5.22799 10.839 5.08899C10.75 4.99299 10.7 4.86399 10.69 4.70099H11.118C11.126 4.77699 11.146 4.83399 11.176 4.87299C11.233 4.94299 11.328 4.97799 11.461 4.97799C11.553 4.97799 11.627 4.95899 11.681 4.92199C11.735 4.88499 11.763 4.83399 11.763 4.77099C11.763 4.71399 11.74 4.67099 11.693 4.64299C11.646 4.61499 11.548 4.58299 11.397 4.54799C11.251 4.51399 11.148 4.48799 11.088 4.46899C11.028 4.44999 10.973 4.42699 10.925 4.40099C10.862 4.36499 10.814 4.31499 10.779 4.24999C10.744 4.18499 10.727 4.11399 10.727 4.03499C10.727 3.86099 10.799 3.72799 10.944 3.63699C11.062 3.56199 11.226 3.52499 11.436 3.52499C11.714 3.52499 11.913 3.59599 12.034 3.73699C12.098 3.81199 12.136 3.91999 12.147 4.05999Z" fill="white"/><path d="M13.374 3.566V3.881H13.04V4.67C13.04 4.764 13.049 4.824 13.066 4.85C13.092 4.887 13.149 4.905 13.238 4.905C13.273 4.905 13.318 4.902 13.373 4.897V5.254C13.273 5.265 13.18 5.271 13.096 5.271C12.969 5.271 12.872 5.257 12.805 5.228C12.701 5.182 12.637 5.098 12.611 4.976C12.6 4.924 12.594 4.816 12.594 4.651V3.881H12.322V3.566H12.594V3.172H13.039V3.566H13.374Z" fill="white"/></svg>

<svg class="color-immutable" width="24" height="24" viewBox="0 0 24 24" fill="none" xmlns="http://www.w3.org/2000/svg"><g clip-path="url(#a)"><path d="M0 22.5v-21C0 .675.675 0 1.5 0h21c.825 0 1.5.675 1.5 1.5v21c0 .825-.675 1.5-1.5 1.5h-21C.675 24 0 23.325 0 22.5Z" fill="#2D327D"/><path d="M9.983 9.335a1.782 1.782 0 1 1 3.564 0 1.782 1.782 0 0 1-3.564 0ZM8.998 21.1c-.057 0-.342-.057-.342-.353 0-.254.214-.353.342-.353l1.132-.001v-7.689l-1.132.002c-.057 0-.342-.057-.342-.353 0-.254.214-.353.342-.353h4.342v8.394l1.125.001c.128 0 .342.099.342.353 0 .296-.286.353-.342.353H8.998V21.1ZM4.964 3v.415h-.683v1.833H3.79V3.415h-.68V3h1.854ZM5.733 3.523a.79.79 0 0 1 .598.243c.153.16.229.373.229.64 0 .276-.082.496-.245.66a.807.807 0 0 1-.596.229c-.261 0-.47-.085-.624-.255-.148-.163-.222-.373-.222-.631 0-.254.072-.461.215-.62.159-.177.374-.266.645-.266Zm-.023.348a.33.33 0 0 0-.281.143.652.652 0 0 0-.107.395c0 .173.035.306.105.398.072.093.17.14.294.14a.332.332 0 0 0 .275-.128c.077-.094.115-.231.115-.411 0-.168-.034-.299-.102-.392a.347.347 0 0 0-.299-.145ZM8.377 3.569v1.68h-.425v-.245a.609.609 0 0 1-.538.291c-.201 0-.353-.067-.455-.201a.506.506 0 0 1-.084-.185 1.22 1.22 0 0 1-.026-.277V3.569h.446v.924c0 .096.003.165.008.205.007.04.018.074.036.102.047.074.127.112.241.112a.32.32 0 0 0 .306-.186c.031-.061.046-.17.046-.328v-.829h.445ZM9.766 3.541v.432a1.038 1.038 0 0 0-.174-.02.391.391 0 0 0-.366.209c-.044.079-.066.209-.066.391v.695h-.446v-1.68h.425v.306c.121-.228.297-.341.528-.341.027.001.061.003.099.008ZM10.422 3v.401h-.446V3h.446Zm0 .572v1.677h-.446V3.572h.446ZM12.147 4.06h-.418a.268.268 0 0 0-.048-.131c-.047-.059-.132-.089-.257-.089a.326.326 0 0 0-.183.043.139.139 0 0 0-.065.122.13.13 0 0 0 .072.122c.048.026.157.056.327.091.216.044.372.099.468.165.113.077.169.194.169.351 0 .179-.07.318-.209.417-.137.097-.319.146-.546.146-.281 0-.487-.069-.618-.208a.605.605 0 0 1-.149-.388h.428a.338.338 0 0 0 .058.172c.057.07.152.105.285.105a.385.385 0 0 0 .22-.056.176.176 0 0 0 .082-.151c0-.057-.023-.1-.07-.128a1.211 1.211 0 0 0-.296-.095 4.8 4.8 0 0 1-.309-.079.94.94 0 0 1-.163-.068.373.373 0 0 1-.146-.151.444.444 0 0 1-.052-.215c0-.174.072-.307.217-.398.118-.075.282-.112.492-.112.278 0 .477.071.598.212a.555.555 0 0 1 .113.323ZM13.374 3.566v.315h-.334v.789c0 .094.009.154.026.18.026.037.083.055.172.055.035 0 .08-.003.135-.008v.357c-.1.011-.193.017-.277.017a.762.762 0 0 1-.291-.043.332.332 0 0 1-.194-.252 1.954 1.954 0 0 1-.017-.325v-.77h-.272v-.315h.272v-.394h.445v.394h.335Z" fill="#fff"/></g><defs><clipPath id="a"><path fill="#fff" d="M0 0h24v24H0z"/></clipPath></defs></svg>
